svg/weather/snowstorm_fill.svg

<?xml version="1.0" encoding="UTF-8"?>
<svg width="24px" height="24px" viewBox="0 0 24 24" version="1.1" xmlns="http://www.w3.org/2000/svg" xmlns:xlink="http://www.w3.org/1999/xlink">
    <title>snowstorm_fill</title>
    <g id="Icon" stroke="none" stroke-width="1" fill="none" fill-rule="evenodd">
        <g id="Weather" transform="translate(-817.000000, -144.000000)" fill-rule="nonzero">
            <g id="snowstorm_fill" transform="translate(817.000000, 144.000000)">
                <path d="M24,0 L24,24 L0,24 L0,0 L24,0 Z M12.5935,23.2578 L12.5819,23.2595 L12.5109,23.295 L12.4919,23.2987 L12.4767,23.295 L12.4057,23.2595 C12.3958,23.2564 12.387,23.259 12.3821,23.2649 L12.378,23.2758 L12.3609,23.7031 L12.3659,23.7235 L12.3769,23.7357 L12.4805,23.8097 L12.4953,23.8136 L12.5071,23.8097 L12.6107,23.7357 L12.6233,23.7197 L12.6267,23.7031 L12.6096,23.2758 C12.6076,23.2657 12.601,23.2593 12.5935,23.2578 Z M12.8584,23.1453 L12.8445,23.1473 L12.6598,23.2397 L12.6499,23.2499 L12.6472,23.2611 L12.6651,23.6906 L12.6699,23.7034 L12.6784,23.7105 L12.8793,23.8032 C12.8914,23.8069 12.9022,23.803 12.9078,23.7952 L12.9118,23.7812 L12.8777,23.1665 C12.8753,23.1546 12.8674,23.147 12.8584,23.1453 Z M12.143,23.1473 C12.1332,23.1424 12.1222,23.1453 12.1156,23.1526 L12.1099,23.1665 L12.0758,23.7812 C12.0751,23.7927 12.0828,23.8019 12.0926,23.8046 L12.1083,23.8032 L12.3092,23.7105 L12.3186,23.7024 L12.3225,23.6906 L12.3404,23.2611 L12.3372,23.2485 L12.3278,23.2397 L12.143,23.1473 Z" id="MingCute"></path>
                <path d="M19.2484,8.52998 C20.0603,8.69478 20.5848,9.48653 20.42,10.2984 C20.0493,12.1248 18.4369,13.5 16.5,13.5 L3,13.5 C2.17157,13.5 1.5,12.8284 1.5,12 C1.5,11.1716 2.17157,10.5 3,10.5 L16.5,10.5 C16.9418333,10.5 17.3193014,10.2121208 17.45047,9.81305891 L17.48,9.7016 C17.6448,8.88973 18.4365,8.36518 19.2484,8.52998 Z M9,2.5 C10.933,2.5 12.5,4.067 12.5,6 C12.5,7.933 10.933,9.5 9,9.5 L5,9.5 C4.17157,9.5 3.5,8.82843 3.5,8 C3.5,7.17157 4.17157,6.5 5,6.5 L9,6.5 C9.27615,6.5 9.5,6.27614 9.5,6 C9.5,5.72386 9.27615,5.5 9,5.5 C8.90645,5.5 8.82311,5.52432 8.7511,5.56597 C8.03401,5.98079 7.11641,5.73576 6.7016,5.01867 C6.28678,4.30158 6.53181,3.38398 7.2489,2.96917 C7.76524,2.67048 8.36499,2.5 9,2.5 Z M16.0021,3 C16.5543,3 17.0021,3.44772 17.0021,4 L17.0021,4.26796 L17.2341,4.13398 C17.7124,3.85784 18.324,4.02171 18.6002,4.5 C18.8763,4.9783 18.7124,5.58989 18.2341,5.86603 L18.0021,6 L18.2341,6.13395 C18.7124,6.41009 18.8763,7.02168 18.6001,7.49997 C18.324,7.97827 17.7124,8.14214 17.2341,7.866 L17.0021,7.73202 L17.0021,8 C17.0021,8.55228 16.5543,9 16.0021,9 C15.4498,9 15.0021,8.55228 15.0021,8 L15.0021,7.73206 L14.77,7.86603 C14.2917,8.14217 13.6801,7.9783 13.404,7.5 C13.1279,7.02171 13.2917,6.41012 13.77,6.13398 L14.0021,6 L13.77,5.866 C13.2917,5.58986 13.1279,4.97827 13.404,4.49997 C13.6801,4.02168 14.2917,3.85781 14.77,4.13395 L15.0021,4.26792 L15.0021,4 C15.0021,3.44772 15.4498,3 16.0021,3 Z M6,14.5 C5.17157,14.5 4.5,15.1716 4.5,16 C4.5,16.8284 5.17157,17.5 6,17.5 L11.5011,17.5 C11.0885,17.6458 10.7429,17.97 10.5857,18.4148 C10.3097,19.1959 10.7191,20.0528 11.5001,20.3289 C11.8148,20.4401 12.152,20.5 12.5,20.5 C14.1569,20.5 15.5,19.1569 15.5,17.5 C15.5,15.8431 14.1569,14.5 12.5,14.5 L6,14.5 Z M19.0001,14 C19.5524,14 20.0001,14.4477 20.0001,15 L20.0001,15.268 L20.2322,15.134 C20.7105,14.8578 21.3221,15.0217 21.5982,15.5 C21.8743,15.9783 21.7105,16.5899 21.2322,16.866 L21.0001,17 L21.2322,17.1339 C21.7105,17.4101 21.8743,18.0217 21.5982,18.5 C21.3221,18.9783 20.7105,19.1421 20.2322,18.866 L20.0001,18.732 L20.0001,19 C20.0001,19.5523 19.5524,20 19.0001,20 C18.4478,20 18.0001,19.5523 18.0001,19 L18.0001,18.7321 L17.7681,18.866 C17.2898,19.1422 16.6782,18.9783 16.402,18.5 C16.1259,18.0217 16.2898,17.4101 16.7681,17.134 L17.0001,17 L16.7681,16.866 C16.2898,16.5899 16.1259,15.9783 16.402,15.5 C16.6782,15.0217 17.2898,14.8578 17.7681,15.1339 L18.0001,15.2679 L18.0001,15 C18.0001,14.4477 18.4478,14 19.0001,14 Z" id="形状" fill="#09244B"></path>
            </g>
        </g>
    </g>
</svg>

<svg xmlns="http://www.w3.org/2000/svg" width="24" height="24"><g fill="none" fill-rule="nonzero"><path d="M24 0v24H0V0h24ZM12.594 23.258l-.012.002-.071.035-.02.004-.014-.004-.071-.036c-.01-.003-.019 0-.024.006l-.004.01-.017.428.005.02.01.013.104.074.015.004.012-.004.104-.074.012-.016.004-.017-.017-.427c-.002-.01-.009-.017-.016-.018Zm.264-.113-.014.002-.184.093-.01.01-.003.011.018.43.005.012.008.008.201.092c.012.004.023 0 .029-.008l.004-.014-.034-.614c-.003-.012-.01-.02-.02-.022Zm-.715.002a.023.023 0 0 0-.027.006l-.006.014-.034.614c0 .012.007.02.017.024l.015-.002.201-.093.01-.008.003-.011.018-.43-.003-.012-.01-.01-.184-.092Z"/><path fill="#09244B" d="M19.248 8.53a1.5 1.5 0 0 1 1.172 1.768A4 4 0 0 1 16.5 13.5H3a1.5 1.5 0 0 1 0-3h13.5c.442 0 .82-.288.95-.687l.03-.111a1.5 1.5 0 0 1 1.768-1.172ZM9 2.5a3.5 3.5 0 1 1 0 7H5a1.5 1.5 0 1 1 0-3h4a.5.5 0 1 0-.249-.934A1.5 1.5 0 1 1 7.25 2.969 3.49 3.49 0 0 1 9 2.5Zm7.002.5a1 1 0 0 1 1 1v.268l.232-.134a1 1 0 0 1 1 1.732L18.002 6l.232.134a1 1 0 1 1-1 1.732l-.232-.134V8a1 1 0 0 1-2 0v-.268l-.232.134a1 1 0 1 1-1-1.732L14.002 6l-.232-.134a1 1 0 0 1 1-1.732l.232.134V4a1 1 0 0 1 1-1ZM6 14.5a1.5 1.5 0 0 0 0 3h5.501a1.5 1.5 0 0 0-.001 2.829 3 3 0 1 0 1-5.829H6Zm13-.5a1 1 0 0 1 1 1v.268l.232-.134a1 1 0 1 1 1 1.732L21 17l.232.134a1 1 0 0 1-1 1.732L20 18.732V19a1 1 0 1 1-2 0v-.268l-.232.134a1 1 0 1 1-1-1.732L17 17l-.232-.134a1 1 0 1 1 1-1.732l.232.134V15a1 1 0 0 1 1-1Z"/></g></svg>
